;FLAVOR:Marlin
;TIME:17318
;Filament used: 13.8739m
;Layer height: 0.2
;MINX:72.2
;MINY:62.25
;MINZ:0.2
;MAXX:162.8
;MAXY:172.85
;MAXZ:30
;Generated with Cura_SteamEngine main
M140 S80
M105
M190 S80
M104 S226
M105
M109 S226
M82 ;absolute extrusion mode
; Ender 3 Custom Start G-code
G92 E0 ; Reset Extruder
G28 ; Home all axes
G1 Z2.0 F3000 ; Move Z Axis up little to prevent scratching of Heat Bed
G1 X0.1 Y20 Z0.3 F5000.0 ; Move to start position
G1 X0.1 Y200.0 Z0.3 F1500.0 E15 ; Draw the first line
G1 X0.4 Y200.0 Z0.3 F5000.0 ; Move to side a little
G1 X0.4 Y20 Z0.3 F1500.0 E30 ; Draw the second line
G92 E0 ; Reset Extruder
G1 Z2.0 F3000 ; Move Z Axis up little to prevent scratching of Heat Bed
G1 X5 Y20 Z0.3 F5000.0 ; Move over to prevent blob squish
G92 E0
G92 E0
G1 F2700 E-5
;LAYER_COUNT:150
;LAYER:0
M107
G0 F6000 X74.08 Y64.972 Z0.2
G0 X72.2 Y70.05
;TYPE:SKIRT
G1 F2700 E0
G1 F900 X72.24 Y69.261 E0.02628
G1 X72.359 Y68.481 E0.05252
G1 X72.557 Y67.716 E0.0788
G1 X72.831 Y66.976 E0.10505
G1 X73.179 Y66.267 E0.13132
G1 X73.597 Y65.596 E0.15761
G1 X74.08 Y64.972 E0.18385
G1 X74.623 Y64.399 E0.21011
G1 X75.222 Y63.884 E0.23638
G1 X75.87 Y63.433 E0.26264
G1 X76.561 Y63.049 E0.28894
G1 X77.286 Y62.737 E0.31519
G1 X78.039 Y62.5 E0.34144
G1 X78.813 Y62.341 E0.36773
G1 X79.598 Y62.26 E0.39397
G1 X80 Y62.25 E0.40735
G1 X155 Y62.25 E2.90186
G1 X155.789 Y62.29 E2.92813
G1 X156.569 Y62.409 E2.95438
G1 X157.334 Y62.607 E2.98066
G1 X158.074 Y62.881 E3.00691
G1 X158.783 Y63.229 E3.03317
G1 X159.454 Y63.647 E3.05947
G1 X160.078 Y64.13 E3.08571
G1 X160.651 Y64.673 E3.11197
G1 X161.166 Y65.272 E3.13824
G1 X161.617 Y65.92 E3.1645
G1 X162.001 Y66.611 E3.19079
G1 X162.313 Y67.336 E3.21705
G1 X162.55 Y68.089 E3.2433
G1 X162.709 Y68.863 E3.26958
G1 X162.79 Y69.648 E3.29583
G1 X162.8 Y70.05 E3.30921
G1 X162.8 Y165.05 E6.46892
G1 X162.76 Y165.839 E6.49519
G1 X162.641 Y166.619 E6.52144
G1 X162.443 Y167.384 E6.54772
G1 X162.169 Y168.124 E6.57397
G1 X161.821 Y168.833 E6.60023
G1 X161.403 Y169.504 E6.62653
G1 X160.92 Y170.128 E6.65277
G1 X160.377 Y170.701 E6.67903
G1 X159.778 Y171.216 E6.7053
G1 X159.13 Y171.667 E6.73156
G1 X158.439 Y172.051 E6.75786
G1 X157.714 Y172.363 E6.78411
G1 X156.961 Y172.6 E6.81036
G1 X156.187 Y172.759 E6.83664
G1 X155.402 Y172.84 E6.86289
G1 X155 Y172.85 E6.87627
G1 X80 Y172.85 E9.37078
G1 X79.211 Y172.81 E9.39705
G1 X78.431 Y172.691 E9.4233
G1 X77.666 Y172.493 E9.44958
G1 X76.926 Y172.219 E9.47582
G1 X76.217 Y171.871 E9.50209
G1 X75.546 Y171.453 E9.52839
G1 X74.922 Y170.97 E9.55463
G1 X74.349 Y170.427 E9.58089
G1 X73.834 Y169.828 E9.60716
G1 X73.383 Y169.18 E9.63342
G1 X72.999 Y168.489 E9.65971
G1 X72.687 Y167.764 E9.68597
G1 X72.45 Y167.011 E9.71222
G1 X72.291 Y166.237 E9.7385
G1 X72.21 Y165.452 E9.76475
G1 X72.2 Y165.05 E9.77813
G1 X72.2 Y70.05 E12.93784
G0 F6000 X72.6 Y70.05
G1 F900 X72.64 Y69.282 E12.96342
G1 X72.759 Y68.522 E12.989
G1 X72.957 Y67.779 E13.01458
G1 X73.231 Y67.06 E13.04017
G1 X73.578 Y66.374 E13.06574
G1 X73.994 Y65.727 E13.09132
G1 X74.475 Y65.127 E13.1169
G1 X75.016 Y64.58 E13.14249
G1 X75.611 Y64.092 E13.16808
G1 X76.253 Y63.669 E13.19365
G1 X76.936 Y63.314 E13.21925
G1 X77.651 Y63.033 E13.24481
G1 X78.393 Y62.827 E13.27042
G1 X79.151 Y62.699 E13.29599
G1 X80 Y62.65 E13.32427
G1 X155 Y62.65 E15.81878
G1 X155.768 Y62.69 E15.84436
G1 X156.528 Y62.809 E15.86995
G1 X157.271 Y63.007 E15.89552
G1 X157.99 Y63.281 E15.92111
G1 X158.676 Y63.628 E15.94668
G1 X159.323 Y64.044 E15.97227
G1 X159.923 Y64.525 E15.99784
G1 X160.47 Y65.066 E16.02343
G1 X160.958 Y65.661 E16.04903
G1 X161.381 Y66.303 E16.0746
G1 X161.736 Y66.986 E16.1002
G1 X162.017 Y67.701 E16.12575
G1 X162.223 Y68.443 E16.15136
G1 X162.351 Y69.201 E16.17693
G1 X162.4 Y70.05 E16.20522
G1 X162.4 Y165.05 E19.36493
G1 X162.36 Y165.818 E19.39051
G1 X162.241 Y166.578 E19.41609
G1 X162.043 Y167.321 E19.44167
G1 X161.769 Y168.04 E19.46726
G1 X161.422 Y168.726 E19.49283
G1 X161.006 Y169.373 E19.51841
G1 X160.525 Y169.973 E19.54399
G1 X159.984 Y170.52 E19.56958
G1 X159.389 Y171.008 E19.59517
G1 X158.747 Y171.431 E19.62074
G1 X158.064 Y171.786 E19.64635
G1 X157.349 Y172.067 E19.6719
G1 X156.607 Y172.273 E19.69751
G1 X155.849 Y172.401 E19.72308
G1 X155 Y172.45 E19.75136
G1 X80 Y172.45 E22.24587
G1 X79.232 Y172.41 E22.27145
G1 X78.472 Y172.291 E22.29704
G1 X77.729 Y172.093 E22.32261
G1 X77.01 Y171.819 E22.3482
G1 X76.324 Y171.472 E22.37377
G1 X75.677 Y171.056 E22.39936
G1 X75.077 Y170.575 E22.42493
G1 X74.53 Y170.034 E22.45052
G1 X74.042 Y169.439 E22.47612
G1 X73.619 Y168.797 E22.50169
G1 X73.264 Y168.114 E22.52729
G1 X72.983 Y167.399 E22.55284
G1 X72.777 Y166.657 E22.57845
G1 X72.649 Y165.899 E22.60402
G1 X72.6 Y165.05 E22.63231
G1 X72.6 Y70.05 E25.79202
G0 F6000 X73 Y70.05
G1 F900 X73.04 Y69.303 E25.8169
G1 X73.159 Y68.565 E25.84176
G1 X73.357 Y67.843 E25.86666
G1 X73.63 Y67.147 E25.89153
G1 X73.977 Y66.484 E25.91642
G1 X74.392 Y65.861 E25.94132
G1 X74.871 Y65.287 E25.96618
G1 X75.408 Y64.766 E25.99107
G1 X75.998 Y64.307 E26.01593
G1 X76.634 Y63.912 E26.04083
G1 X77.308 Y63.588 E26.0657
G1 X78.013 Y63.338 E26.09058
G1 X78.741 Y63.164 E26.11548
G1 X79.483 Y63.069 E26.14036
G1 X80 Y63.05 E26.15757
G1 X155 Y63.05 E28.65208
G1 X155.747 Y63.09 E28.67696
G1 X156.485 Y63.209 E28.70182
G1 X157.207 Y63.407 E28.72672
G1 X157.903 Y63.68 E28.75159
G1 X158.566 Y64.027 E28.77648
G1 X159.189 Y64.442 E28.80137
G1 X159.763 Y64.921 E28.82624
G1 X160.284 Y65.458 E28.85112
G1 X160.743 Y66.048 E28.87599
G1 X161.138 Y66.684 E28.90089
G1 X161.462 Y67.358 E28.92576
G1 X161.712 Y68.063 E28.95064
G1 X161.886 Y68.791 E28.97553
G1 X161.981 Y69.533 E29.00042
G1 X162 Y70.05 E29.01762
G1 X162 Y165.05 E32.17734
G1 X161.96 Y165.797 E32.20222
G1 X161.841 Y166.535 E32.22708
G1 X161.643 Y167.257 E32.25198
G1 X161.37 Y167.953 E32.27685
G1 X161.023 Y168.616 E32.30173
G1 X160.608 Y169.239 E32.32663
G1 X160.129 Y169.813 E32.3515
G1 X159.592 Y170.334 E32.37638
G1 X159.002 Y170.793 E32.40125
G1 X158.366 Y171.188 E32.42615
G1 X157.692 Y171.512 E32.45102
G1 X156.987 Y171.762 E32.4759
G1 X156.259 Y171.936 E32.50079
G1 X155.517 Y172.031 E32.52567
G1 X155 Y172.05 E32.54288
G1 X80 Y172.05 E35.03739
G1 X79.253 Y172.01 E35.06227
G1 X78.515 Y171.891 E35.08714
G1 X77.793 Y171.693 E35.11204
G1 X77.097 Y171.42 E35.1369
G1 X76.434 Y171.073 E35.16179
G1 X75.811 Y170.658 E35.18669
G1 X75.237 Y170.179 E35.21155
G1 X74.716 Y169.642 E35.23644
G1 X74.257 Y169.052 E35.2613
G1 X73.862 Y168.416 E35.2862
G1 X73.538 Y167.742 E35.31108
G1 X73.288 Y167.037 E35.33596
G1 X73.114 Y166.309 E35.36085
G1 X73.019 Y165.567 E35.38573
G1 X73 Y165.05 E35.40294
G1 X73 Y70.05 E38.56265
G0 F6000 X73.4 Y70.05
G1 F900 X73.44 Y69.325 E38.5868
G1 X73.559 Y68.608 E38.61098
G1 X73.757 Y67.909 E38.63514
G1 X74.03 Y67.236 E38.65929
G1 X74.375 Y66.597 E38.68345
G1 X74.789 Y66 E38.70761
G1 X75.265 Y65.452 E38.73175
G1 X75.799 Y64.959 E38.75593
G1 X76.384 Y64.529 E38.78007
G1 X77.013 Y64.165 E38.80425
G1 X77.678 Y63.872 E38.82842
G1 X78.371 Y63.654 E38.85258
G1 X79.083 Y63.514 E38.87671
G1 X80 Y63.45 E38.90729
G1 X155 Y63.45 E41.4018
G1 X155.725 Y63.49 E41.42595
G1 X156.442 Y63.609 E41.45012
G1 X157.141 Y63.807 E41.47428
G1 X157.814 Y64.08 E41.49844
G1 X158.453 Y64.425 E41.52259
G1 X159.05 Y64.839 E41.54676
G1 X159.598 Y65.315 E41.5709
G1 X160.091 Y65.849 E41.59507
G1 X160.521 Y66.434 E41.61922
G1 X160.885 Y67.063 E41.64339
G1 X161.178 Y67.728 E41.66756
G1 X161.396 Y68.421 E41.69172
G1 X161.536 Y69.133 E41.71586
G1 X161.6 Y70.05 E41.74643
G1 X161.6 Y165.05 E44.90614
G1 X161.56 Y165.775 E44.93029
G1 X161.441 Y166.492 E44.95447
G1 X161.243 Y167.191 E44.97863
G1 X160.97 Y167.864 E45.00279
G1 X160.625 Y168.503 E45.02694
G1 X160.211 Y169.1 E45.0511
G1 X159.735 Y169.648 E45.07525
G1 X159.201 Y170.141 E45.09942
G1 X158.616 Y170.571 E45.12357
G1 X157.987 Y170.935 E45.14774
G1 X157.322 Y171.228 E45.17191
G1 X156.629 Y171.446 E45.19607
G1 X155.917 Y171.586 E45.22021
G1 X155 Y171.65 E45.25078
G1 X80 Y171.65 E47.74529
G1 X79.275 Y171.61 E47.76944
G1 X78.558 Y171.491 E47.79361
G1 X77.859 Y171.293 E47.81778
G1 X77.186 Y171.02 E47.84193
G1 X76.547 Y170.675 E47.86609
G1 X75.95 Y170.261 E47.89025
G1 X75.402 Y169.785 E47.91439
G1 X74.909 Y169.251 E47.93856
G1 X74.479 Y168.666 E47.96271
G1 X74.115 Y168.037 E47.98688
G1 X73.822 Y167.372 E48.01105
G1 X73.604 Y166.679 E48.03522
G1 X73.464 Y165.967 E48.05935
G1 X73.4 Y165.05 E48.08992
G1 X73.4 Y70.05 E51.24964
G0 F6000 X73.8 Y70.05
G1 F900 X73.84 Y69.347 E51.27306
G1 X73.959 Y68.653 E51.29648
G1 X74.157 Y67.978 E51.31987
G1 X74.429 Y67.329 E51.34328
G1 X74.774 Y66.715 E51.3667
G1 X75.185 Y66.144 E51.3901
G1 X75.659 Y65.623 E51.41353
G1 X76.189 Y65.159 E51.43696
G1 X76.768 Y64.759 E51.46036
G1 X77.389 Y64.427 E51.48379
G1 X78.043 Y64.167 E51.50719
G1 X78.723 Y63.983 E51.53062
G1 X79.419 Y63.877 E51.55404
G1 X80 Y63.85 E51.57338
G1 X155 Y63.85 E54.06789
G1 X155.703 Y63.89 E54.09131
G1 X156.397 Y64.009 E54.11473
G1 X157.072 Y64.207 E54.13813
G1 X157.721 Y64.479 E54.16154
G1 X158.335 Y64.824 E54.18496
G1 X158.906 Y65.235 E54.20836
G1 X159.427 Y65.709 E54.23179
G1 X159.891 Y66.239 E54.25522
G1 X160.291 Y66.818 E54.27862
G1 X160.623 Y67.439 E54.30204
G1 X160.883 Y68.093 E54.32545
G1 X161.067 Y68.773 E54.34888
G1 X161.173 Y69.469 E54.3723
G1 X161.2 Y70.05 E54.39164
G1 X161.2 Y165.05 E57.55135
G1 X161.16 Y165.753 E57.57477
G1 X161.041 Y166.447 E57.59819
G1 X160.843 Y167.122 E57.62159
G1 X160.571 Y167.771 E57.645
G1 X160.226 Y168.385 E57.66842
G1 X159.815 Y168.956 E57.69182
G1 X159.341 Y169.477 E57.71525
G1 X158.811 Y169.941 E57.73868
G1 X158.232 Y170.341 E57.76208
G1 X157.611 Y170.673 E57.7855
G1 X156.957 Y170.933 E57.80891
G1 X156.277 Y171.117 E57.83234
G1 X155.581 Y171.223 E57.85576
G1 X155 Y171.25 E57.8751
G1 X80 Y171.25 E60.36961
G1 X79.297 Y171.21 E60.39303
G1 X78.603 Y171.091 E60.41645
G1 X77.928 Y170.893 E60.43985
G1 X77.279 Y170.621 E60.46325
G1 X76.665 Y170.276 E60.48668
G1 X76.094 Y169.865 E60.51008
G1 X75.573 Y169.391 E60.5335
G1 X75.109 Y168.861 E60.55693
G1 X74.709 Y168.282 E60.58034
G1 X74.377 Y167.661 E60.60376
G1 X74.117 Y167.007 E60.62717
G1 X73.933 Y166.327 E60.6506
G1 X73.827 Y165.631 E60.67401
G1 X73.8 Y165.05 E60.69336
G1 X73.8 Y70.05 E63.85307
G0 F6000 X74.2 Y70.05
G1 F900 X74.24 Y69.37 E63.87573
G1 X74.359 Y68.7 E63.89836
G1 X74.556 Y68.048 E63.92102
G1 X74.828 Y67.424 E63.94366
G1 X75.172 Y66.836 E63.96631
G1 X75.582 Y66.292 E63.98897
G1 X76.053 Y65.801 E64.0116
G1 X76.578 Y65.367 E64.03426
G1 X77.15 Y64.998 E64.0569
G1 X77.762 Y64.699 E64.07955
G1 X78.404 Y64.474 E64.10218
G1 X79.069 Y64.325 E64.12484
G1 X80 Y64.25 E64.15591
G1 X155 Y64.25 E66.65042
G1 X155.68 Y64.29 E66.67307
G1 X156.35 Y64.409 E66.69571
G1 X157.002 Y64.606 E66.71836
G1 X157.626 Y64.878 E66.741
G1 X158.214 Y65.222 E66.76366
G1 X158.758 Y65.632 E66.78632
G1 X159.249 Y66.103 E66.80895
G1 X159.683 Y66.628 E66.8316
G1 X160.052 Y67.2 E66.85424
G1 X160.351 Y67.812 E66.8769
G1 X160.576 Y68.454 E66.89952
G1 X160.725 Y69.119 E66.92219
G1 X160.8 Y70.05 E66.95325
G1 X160.8 Y165.05 E70.11297
G1 X160.76 Y165.73 E70.13562
G1 X160.641 Y166.4 E70.15826
G1 X160.444 Y167.052 E70.18091
G1 X160.172 Y167.676 E70.20355
G1 X159.828 Y168.264 E70.22621
G1 X159.418 Y168.808 E70.24887
G1 X158.947 Y169.299 E70.2715
G1 X158.422 Y169.733 E70.29415
G1 X157.85 Y170.102 E70.31679
G1 X157.238 Y170.401 E70.33945
G1 X156.596 Y170.626 E70.36207
G1 X155.931 Y170.775 E70.38474
G1 X155 Y170.85 E70.4158
G1 X80 Y170.85 E72.91031
G1 X79.32 Y170.81 E72.93297
G1 X78.65 Y170.691 E72.9556
G1 X77.998 Y170.494 E72.97826
G1 X77.374 Y170.222 E73.0009
G1 X76.786 Y169.878 E73.02356
G1 X76.242 Y169.468 E73.04621
G1 X75.751 Y168.997 E73.06884
G1 X75.317 Y168.472 E73.0915
G1 X74.948 Y167.9 E73.11414
G1 X74.649 Y167.288 E73.13679
G1 X74.424 Y166.646 E73.15942
G1 X74.275 Y165.981 E73.18208
G1 X74.2 Y165.05 E73.21315
G1 X74.2 Y70.05 E76.37286
G0 F6000 X74.6 Y70.05
G1 F900 X74.64 Y69.394 E76.39472
G1 X74.759 Y68.748 E76.41657
G1 X74.956 Y68.121 E76.43843
G1 X75.228 Y67.523 E76.46028
G1 X75.57 Y66.962 E76.48213
G1 X75.978 Y66.447 E76.50398
G1 X76.445 Y65.985 E76.52583
G1 X76.965 Y65.584 E76.54767
G1 X77.529 Y65.248 E76.56951
G1 X78.131 Y64.984 E76.59137
G1 X78.76 Y64.794 E76.61323
G1 X79.407 Y64.683 E76.63506
G1 X80 Y64.65 E76.65481
G1 X155 Y64.65 E79.14932
G1 X155.656 Y64.69 E79.17118
G1 X156.302 Y64.809 E79.19303
G1 X156.929 Y65.006 E79.21489
G1 X157.527 Y65.278 E79.23674
G1 X158.088 Y65.62 E79.25859
G1 X158.603 Y66.028 E79.28045
G1 X159.065 Y66.495 E79.3023
G1 X159.466 Y67.015 E79.32414
G1 X159.802 Y67.579 E79.34597
G1 X160.066 Y68.181 E79.36784
G1 X160.256 Y68.81 E79.38969
G1 X160.367 Y69.457 E79.41152
G1 X160.4 Y70.05 E79.43128
G1 X160.4 Y165.05 E82.59099
G1 X160.36 Y165.706 E82.61285
G1 X160.241 Y166.352 E82.6347
G1 X160.044 Y166.979 E82.65656
G1 X159.772 Y167.577 E82.67841
G1 X159.43 Y168.138 E82.70026
G1 X159.022 Y168.653 E82.72211
G1 X158.555 Y169.115 E82.74396
G1 X158.035 Y169.516 E82.7658
G1 X157.471 Y169.852 E82.78764
G1 X156.869 Y170.116 E82.8095
G1 X156.24 Y170.306 E82.83135
G1 X155.593 Y170.417 E82.85319
G1 X155 Y170.45 E82.87294
G1 X80 Y170.45 E85.36745
G1 X79.344 Y170.41 E85.38931
G1 X78.698 Y170.291 E85.41116
G1 X78.071 Y170.094 E85.43302
G1 X77.473 Y169.822 E85.45487
G1 X76.912 Y169.48 E85.47672
G1 X76.397 Y169.072 E85.49857
G1 X75.935 Y168.605 E85.52042
G1 X75.534 Y168.085 E85.54226
G1 X75.198 Y167.521 E85.5641
G1 X74.934 Y166.919 E85.58596
G1 X74.744 Y166.29 E85.60782
G1 X74.633 Y165.643 E85.62965
G1 X74.6 Y165.05 E85.6494
G1 X74.6 Y70.05 E88.80912
G0 F6000 X75 Y70.05
G1 F900 X75.04 Y69.419 E88.83015
G1 X75.159 Y68.798 E88.85118
G1 X75.356 Y68.198 E88.87218
G1 X75.627 Y67.626 E88.89323
G1 X75.967 Y67.094 E88.91423
G1 X76.373 Y66.609 E88.93527
G1 X76.836 Y66.179 E88.95629
G1 X77.35 Y65.81 E88.97733
G1 X77.906 Y65.51 E88.99834
G1 X78.495 Y65.282 E89.01935
G1 X79.109 Y65.13 E89.04039
G1 X80 Y65.05 E89.07014
G1 X155 Y65.05 E91.56465
G1 X155.631 Y65.09 E91.58568
G1 X156.252 Y65.209 E91.60671
G1 X156.852 Y65.406 E91.62772
G1 X157.424 Y65.677 E91.64877
G1 X157.956 Y66.017 E91.66977
G1 X158.441 Y66.423 E91.6908
G1 X158.871 Y66.886 E91.71182
G1 X159.24 Y67.4 E91.73287
G1 X159.54 Y67.956 E91.75388
G1 X159.768 Y68.545 E91.77489
G1 X159.92 Y69.159 E91.79592
G1 X160 Y70.05 E91.82568
G1 X160 Y165.05 E94.98539
G1 X159.96 Y165.681 E95.00642
G1 X159.841 Y166.302 E95.02745
G1 X159.644 Y166.902 E95.04845
G1 X159.373 Y167.474 E95.06951
G1 X159.033 Y168.006 E95.09051
G1 X158.627 Y168.491 E95.11154
G1 X158.164 Y168.921 E95.13256
G1 X157.65 Y169.29 E95.1536
G1 X157.094 Y169.59 E95.17462
G1 X156.505 Y169.818 E95.19562
G1 X155.891 Y169.97 E95.21666
G1 X155 Y170.05 E95.24642
G1 X80 Y170.05 E97.74093
G1 X79.369 Y170.01 E97.76195
G1 X78.748 Y169.891 E97.78299
G1 X78.148 Y169.694 E97.80399
G1 X77.576 Y169.423 E97.82504
G1 X77.044 Y169.083 E97.84604
G1 X76.559 Y168.677 E97.86708
G1 X76.129 Y168.214 E97.88809
G1 X75.76 Y167.7 E97.90914
G1 X75.46 Y167.144 E97.93015
G1 X75.232 Y166.555 E97.95116
G1 X75.08 Y165.941 E97.9722
G1 X75 Y165.05 E98.00195
G1 X75 Y70.05 E101.16166
G0 F6000 X75.4 Y70.05
G1 F900 X75.44 Y69.445 E101.18183
G1 X75.559 Y68.851 E101.20198
G1 X75.755 Y68.277 E101.22215
G1 X76.026 Y67.734 E101.24234
G1 X76.365 Y67.231 E101.26251
G1 X76.767 Y66.778 E101.28266
G1 X77.225 Y66.381 E101.30282
G1 X77.732 Y66.048 E101.32299
G1 X78.278 Y65.784 E101.34316
G1 X78.854 Y65.595 E101.36332
G1 X79.45 Y65.483 E101.38349
G1 X80 Y65.45 E101.40182
G1 X155 Y65.45 E103.89633
G1 X155.605 Y65.49 E103.9165
G1 X156.199 Y65.609 E103.93665
G1 X156.773 Y65.805 E103.95682
G1 X157.316 Y66.076 E103.977
G1 X157.819 Y66.415 E103.99718
G1 X158.272 Y66.817 E104.01732
G1 X158.669 Y67.275 E104.03748
G1 X159.002 Y67.782 E104.05766
G1 X159.266 Y68.328 E104.07783
G1 X159.455 Y68.904 E104.09799
G1 X159.567 Y69.5 E104.11816
G1 X159.6 Y70.05 E104.13649
G1 X159.6 Y165.05 E107.2962
G1 X159.56 Y165.655 E107.31637
G1 X159.441 Y166.249 E107.33652
G1 X159.245 Y166.823 E107.35669
G1 X158.974 Y167.366 E107.37687
G1 X158.635 Y167.869 E107.39705
G1 X158.233 Y168.322 E107.41719
G1 X157.775 Y168.719 E107.43735
