;FLAVOR:Marlin
;TIME:19501
;Filament used: 13.653m
;Layer height: 0.2
;MINX:15.876
;MINY:28.385
;MINZ:0.2
;MAXX:225.922
;MAXY:204.956
;MAXZ:15
;Generated with Cura_SteamEngine main
M140 S80
M105
M190 S80
M104 S226
M105
M109 S226
M82 ;absolute extrusion mode
; Ender 3 Custom Start G-code
G92 E0 ; Reset Extruder
G28 ; Home all axes
G1 Z2.0 F3000 ; Move Z Axis up little to prevent scratching of Heat Bed
G1 X0.1 Y20 Z0.3 F5000.0 ; Move to start position
G1 X0.1 Y200.0 Z0.3 F1500.0 E15 ; Draw the first line
G1 X0.4 Y200.0 Z0.3 F5000.0 ; Move to side a little
G1 X0.4 Y20 Z0.3 F1500.0 E30 ; Draw the second line
G92 E0 ; Reset Extruder
G1 Z2.0 F3000 ; Move Z Axis up little to prevent scratching of Heat Bed
G1 X5 Y20 Z0.3 F5000.0 ; Move over to prevent blob squish
G92 E0
G92 E0
G1 F2700 E-5
;LAYER_COUNT:75
;LAYER:0
M107
G0 F6000 X172.062 Y30.668 Z0.2
;TYPE:SKIRT
G1 F2700 E0
G1 F900 X172.648 Y30.138 E0.02628
G1 X173.285 Y29.671 E0.05255
G1 X173.965 Y29.27 E0.07881
G1 X174.683 Y28.94 E0.10509
G1 X175.43 Y28.685 E0.13134
G1 X176.199 Y28.506 E0.1576
G1 X176.982 Y28.406 E0.18386
G1 X177.772 Y28.385 E0.21014
G1 X178.559 Y28.445 E0.23639
G1 X179.337 Y28.584 E0.26268
G1 X180.096 Y28.801 E0.28894
G1 X180.83 Y29.093 E0.31521
G1 X181.53 Y29.458 E0.34147
G1 X182.189 Y29.892 E0.36771
G1 X182.802 Y30.391 E0.394
G1 X183.093 Y30.668 E0.40736
G1 X190.164 Y37.739 E0.73996
G1 X190.694 Y38.325 E0.76624
G1 X191.161 Y38.961 E0.79248
G1 X191.562 Y39.641 E0.81874
G1 X191.892 Y40.359 E0.84502
G1 X192.147 Y41.106 E0.87128
G1 X192.326 Y41.875 E0.89754
G1 X192.426 Y42.659 E0.92382
G1 X192.447 Y43.448 E0.95008
G1 X192.387 Y44.235 E0.97633
G1 X192.248 Y45.013 E1.00261
G1 X192.031 Y45.772 E1.02887
G1 X191.739 Y46.506 E1.05514
G1 X191.374 Y47.206 E1.0814
G1 X190.94 Y47.866 E1.10767
G1 X190.441 Y48.478 E1.13394
G1 X190.164 Y48.77 E1.14732
G1 X185.317 Y53.617 E1.37531
G1 X205.893 Y35.572 E2.28557
G1 X206.512 Y35.082 E2.31182
G1 X207.178 Y34.657 E2.3381
G1 X207.883 Y34.302 E2.36436
G1 X208.621 Y34.019 E2.39064
G1 X209.383 Y33.813 E2.4169
G1 X210.162 Y33.685 E2.44316
G1 X210.951 Y33.636 E2.46945
G1 X211.74 Y33.668 E2.49571
G1 X212.521 Y33.779 E2.52195
G1 X213.288 Y33.968 E2.54822
G1 X214.032 Y34.234 E2.5745
G1 X214.744 Y34.574 E2.60075
G1 X215.419 Y34.984 E2.62701
G1 X216.049 Y35.46 E2.65328
G1 X216.551 Y35.921 E2.67594
G1 X222.264 Y41.634 E2.94467
G1 X222.686 Y41.978 E2.96277
G1 X223.324 Y42.624 E2.99297
G1 X223.985 Y43.377 E3.0263
G1 X224.475 Y43.996 E3.05256
G1 X224.9 Y44.662 E3.07883
G1 X225.256 Y45.367 E3.1051
G1 X225.539 Y46.104 E3.13136
G1 X225.745 Y46.866 E3.15761
G1 X225.874 Y47.646 E3.18391
G1 X225.922 Y48.434 E3.21017
G1 X225.892 Y49.223 E3.23643
G1 X225.781 Y50.005 E3.2627
G1 X225.592 Y50.772 E3.28897
G1 X225.326 Y51.515 E3.31522
G1 X224.987 Y52.228 E3.34148
G1 X224.577 Y52.903 E3.36775
G1 X224.101 Y53.533 E3.39401
G1 X223.564 Y54.112 E3.42027
G1 X223.266 Y54.387 E3.43376
G1 X60.87 Y196.805 E10.6179
G1 X60.561 Y197.063 E10.63129
G1 X60.252 Y197.307 E10.64438
G1 X59.643 Y197.742 E10.66927
G1 X59.314 Y197.954 E10.68229
G1 X58.664 Y198.329 E10.70725
G1 X58.315 Y198.509 E10.72031
G1 X57.605 Y198.832 E10.74626
G1 X57.139 Y199.016 E10.76292
G1 X56.04 Y199.359 E10.80121
G1 X55.571 Y199.468 E10.81723
G1 X54.814 Y199.604 E10.84281
G1 X54.423 Y199.655 E10.85592
G1 X53.669 Y199.717 E10.88108
G1 X53.18 Y199.733 E10.89736
G1 X52.042 Y199.687 E10.93524
G1 X51.454 Y199.62 E10.95492
G1 X50.306 Y199.401 E10.99379
G1 X49.835 Y199.274 E11.01002
G1 X49.112 Y199.041 E11.03528
G1 X48.741 Y198.901 E11.04847
G1 X48.046 Y198.599 E11.07368
G1 X47.614 Y198.386 E11.0897
G1 X46.646 Y197.819 E11.12701
G1 X46.237 Y197.538 E11.14351
G1 X45.6 Y197.05 E11.1702
G1 X45.225 Y196.731 E11.18658
G1 X44.426 Y195.946 E11.22383
G1 X43.749 Y195.178 E11.25788
G1 X37.286 Y201.641 E11.56188
G1 X36.722 Y202.153 E11.58722
G1 X36.347 Y202.461 E11.60336
G1 X35.416 Y203.117 E11.64124
G1 X34.992 Y203.372 E11.65769
G1 X34.302 Y203.741 E11.68372
G1 X33.853 Y203.953 E11.70023
G1 X32.772 Y204.369 E11.73876
G1 X32.307 Y204.509 E11.75491
G1 X31.584 Y204.689 E11.77969
G1 X31.198 Y204.766 E11.79278
G1 X30.446 Y204.878 E11.81807
G1 X30.055 Y204.917 E11.83114
G1 X29.281 Y204.956 E11.85692
G1 X28.797 Y204.956 E11.87301
G1 X27.672 Y204.874 E11.91053
G1 X27.082 Y204.788 E11.93036
G1 X25.941 Y204.534 E11.96924
G1 X25.381 Y204.364 E11.98871
G1 X24.302 Y203.946 E12.02719
G1 X23.767 Y203.692 E12.04689
G1 X22.779 Y203.132 E12.08466
G1 X22.288 Y202.804 E12.1043
G1 X21.4 Y202.113 E12.14173
G1 X21.037 Y201.786 E12.15797
G1 X20.741 Y201.504 E12.17157
G1 X19.326 Y200.088 E12.23815
G1 X19.056 Y199.805 E12.25116
G1 X18.793 Y199.514 E12.26421
G1 X18.314 Y198.929 E12.28936
G1 X18.079 Y198.612 E12.30248
G1 X17.657 Y197.98 E12.32776
G1 X17.456 Y197.645 E12.34075
G1 X17.098 Y196.977 E12.36596
G1 X16.929 Y196.621 E12.37906
G1 X16.62 Y195.873 E12.40598
G1 X16.489 Y195.502 E12.41907
G1 X16.279 Y194.806 E12.44325
G1 X16.184 Y194.428 E12.45621
G1 X16.033 Y193.672 E12.48185
G1 X15.975 Y193.281 E12.495
G1 X15.9 Y192.514 E12.52063
G1 X15.876 Y192.019 E12.53712
G1 X15.906 Y190.864 E12.57554
G1 X15.964 Y190.285 E12.5949
G1 X16.157 Y189.174 E12.6324
G1 X16.276 Y188.697 E12.64875
G1 X16.498 Y187.964 E12.67423
G1 X16.63 Y187.594 E12.68729
G1 X16.931 Y186.868 E12.71343
G1 X17.141 Y186.426 E12.72971
G1 X17.696 Y185.446 E12.76717
G1 X17.97 Y185.035 E12.7836
G1 X18.432 Y184.412 E12.80939
G1 X18.68 Y184.11 E12.82239
G1 X19.192 Y183.545 E12.84775
G1 X172.062 Y30.668 E20.03845
G0 F6000 X172.345 Y30.951
G1 F900 X172.917 Y30.436 E20.06405
G1 X173.538 Y29.983 E20.08962
G1 X174.204 Y29.597 E20.11522
G1 X174.906 Y29.282 E20.14081
G1 X175.636 Y29.042 E20.16637
G1 X176.388 Y28.879 E20.19196
G1 X177.153 Y28.795 E20.21756
G1 X177.922 Y28.791 E20.24314
G1 X178.687 Y28.867 E20.26871
G1 X179.441 Y29.021 E20.2943
G1 X180.174 Y29.253 E20.31987
G1 X180.879 Y29.56 E20.34545
G1 X181.549 Y29.939 E20.37105
G1 X182.176 Y30.385 E20.39664
G1 X182.811 Y30.95 E20.42491
G1 X189.882 Y38.021 E20.75751
G1 X190.396 Y38.593 E20.78309
G1 X190.849 Y39.215 E20.80868
G1 X191.235 Y39.88 E20.83426
G1 X191.55 Y40.582 E20.85985
G1 X191.79 Y41.313 E20.88544
G1 X191.953 Y42.064 E20.911
G1 X192.037 Y42.829 E20.9366
G1 X192.041 Y43.598 E20.96217
G1 X191.965 Y44.363 E20.98774
G1 X191.811 Y45.117 E21.01334
G1 X191.579 Y45.85 E21.03891
G1 X191.272 Y46.555 E21.06448
G1 X190.893 Y47.225 E21.09009
G1 X190.447 Y47.852 E21.11568
G1 X189.881 Y48.487 E21.14397
G1 X176.392 Y61.975 E21.77843
G1 X206.157 Y35.872 E23.09518
G1 X206.761 Y35.396 E23.12076
G1 X207.411 Y34.985 E23.14633
G1 X208.1 Y34.643 E23.17192
G1 X208.821 Y34.375 E23.1975
G1 X209.566 Y34.184 E23.22308
G1 X210.326 Y34.07 E23.24864
G1 X211.095 Y34.036 E23.27424
G1 X211.863 Y34.082 E23.29983
G1 X212.621 Y34.208 E23.32539
G1 X213.363 Y34.411 E23.35098
G1 X214.08 Y34.691 E23.37658
G1 X214.763 Y35.043 E23.40214
G1 X215.407 Y35.465 E23.42774
G1 X216.269 Y36.203 E23.46549
G1 X221.984 Y41.918 E23.7343
G1 X222.06 Y41.972 E23.7374
G1 X222.637 Y42.48 E23.76297
G1 X223.023 Y42.888 E23.78165
G1 X223.684 Y43.641 E23.81498
G1 X224.161 Y44.245 E23.84058
G1 X224.572 Y44.895 E23.86615
G1 X224.914 Y45.584 E23.89174
G1 X225.183 Y46.305 E23.91733
G1 X225.375 Y47.049 E23.94289
G1 X225.489 Y47.81 E23.96848
G1 X225.523 Y48.578 E23.99405
G1 X225.477 Y49.346 E24.01964
G1 X225.352 Y50.105 E24.04523
G1 X225.149 Y50.847 E24.07081
G1 X224.869 Y51.564 E24.09641
G1 X224.517 Y52.247 E24.12197
G1 X224.096 Y52.891 E24.14756
G1 X223.611 Y53.487 E24.17312
G1 X223.002 Y54.087 E24.20155
G1 X60.606 Y196.505 E31.38569
G1 X60.313 Y196.749 E31.39837
G1 X60.004 Y196.993 E31.41147
G1 X59.426 Y197.405 E31.43508
G1 X59.097 Y197.617 E31.44809
G1 X58.481 Y197.974 E31.47177
G1 X58.132 Y198.154 E31.48484
G1 X57.458 Y198.46 E31.50945
G1 X56.992 Y198.644 E31.52612
G1 X55.949 Y198.969 E31.56245
G1 X55.48 Y199.078 E31.57847
G1 X54.762 Y199.208 E31.60274
G1 X54.371 Y199.259 E31.61585
G1 X53.656 Y199.317 E31.63971
G1 X53.167 Y199.333 E31.65598
G1 X52.087 Y199.289 E31.69194
G1 X51.499 Y199.222 E31.71162
G1 X50.41 Y199.015 E31.74849
G1 X49.939 Y198.888 E31.76471
G1 X49.253 Y198.666 E31.78869
G1 X48.882 Y198.526 E31.80188
G1 X48.223 Y198.24 E31.82578
G1 X47.791 Y198.027 E31.8418
G1 X46.873 Y197.489 E31.87719
G1 X46.464 Y197.208 E31.89369
G1 X45.859 Y196.745 E31.91903
G1 X45.484 Y196.426 E31.9354
G1 X44.726 Y195.682 E31.97073
G1 X43.767 Y194.594 E32.01897
G1 X37.003 Y201.358 E32.33713
G1 X36.468 Y201.843 E32.36114
G1 X36.093 Y202.151 E32.37728
G1 X35.21 Y202.774 E32.41323
G1 X34.786 Y203.029 E32.42968
G1 X34.132 Y203.38 E32.45437
G1 X33.683 Y203.592 E32.47089
G1 X32.656 Y203.986 E32.50747
G1 X32.191 Y204.126 E32.52362
G1 X31.506 Y204.297 E32.5471
G1 X31.12 Y204.374 E32.5602
G1 X30.406 Y204.48 E32.5842
G1 X30.015 Y204.519 E32.59727
G1 X29.281 Y204.556 E32.62172
G1 X28.797 Y204.556 E32.63782
G1 X27.73 Y204.479 E32.6734
G1 X27.14 Y204.393 E32.69323
G1 X26.057 Y204.151 E32.73014
G1 X25.497 Y203.981 E32.7496
G1 X24.473 Y203.585 E32.78612
G1 X23.938 Y203.331 E32.80582
G1 X23.001 Y202.799 E32.84165
G1 X22.51 Y202.471 E32.86129
G1 X21.668 Y201.816 E32.89677
G1 X21.305 Y201.489 E32.91302
G1 X21.024 Y201.222 E32.92592
G1 X19.609 Y199.806 E32.9925
G1 X19.09 Y199.246 E33.01789
G1 X18.635 Y198.691 E33.04176
G1 X18.4 Y198.374 E33.05489
G1 X18 Y197.774 E33.07887
G1 X17.799 Y197.439 E33.09186
G1 X17.459 Y196.805 E33.11579
G1 X17.29 Y196.449 E33.1289
G1 X16.997 Y195.74 E33.15441
G1 X16.866 Y195.369 E33.1675
G1 X16.667 Y194.709 E33.19043
G1 X16.572 Y194.331 E33.20339
G1 X16.429 Y193.613 E33.22774
G1 X16.371 Y193.222 E33.24089
G1 X16.3 Y192.494 E33.26522
G1 X16.276 Y191.999 E33.2817
G1 X16.304 Y190.903 E33.31816
G1 X16.362 Y190.324 E33.33752
G1 X16.545 Y189.271 E33.37307
G1 X16.664 Y188.794 E33.38942
G1 X16.874 Y188.098 E33.4136
G1 X17.006 Y187.728 E33.42666
G1 X17.292 Y187.039 E33.45148
G1 X17.502 Y186.597 E33.46775
G1 X18.029 Y185.668 E33.50328
G1 X18.303 Y185.257 E33.5197
G1 X18.741 Y184.666 E33.54417
G1 X18.989 Y184.364 E33.55717
G1 X19.475 Y183.828 E33.58123
G1 X172.345 Y30.951 E40.77193
G0 F6000 X172.628 Y31.233
G1 F900 X173.185 Y30.733 E40.79683
G1 X173.791 Y30.296 E40.82168
G1 X174.441 Y29.925 E40.84657
G1 X175.127 Y29.626 E40.87146
G1 X175.841 Y29.402 E40.89635
G1 X176.574 Y29.255 E40.92122
G1 X177.319 Y29.188 E40.94609
G1 X178.067 Y29.2 E40.97098
G1 X178.809 Y29.292 E40.99584
G1 X179.538 Y29.463 E41.02075
G1 X180.244 Y29.71 E41.04563
G1 X180.919 Y30.032 E41.0705
G1 X181.556 Y30.424 E41.09538
G1 X182.148 Y30.881 E41.12025
G1 X182.528 Y31.233 E41.13748
G1 X189.599 Y38.304 E41.47008
G1 X190.099 Y38.861 E41.49497
G1 X190.536 Y39.467 E41.51982
G1 X190.907 Y40.117 E41.54472
G1 X191.206 Y40.803 E41.5696
G1 X191.43 Y41.517 E41.59449
G1 X191.577 Y42.25 E41.61936
G1 X191.644 Y42.995 E41.64424
G1 X191.632 Y43.743 E41.66912
G1 X191.54 Y44.486 E41.69402
G1 X191.369 Y45.214 E41.71889
G1 X191.122 Y45.92 E41.74377
G1 X190.8 Y46.595 E41.76864
G1 X190.408 Y47.233 E41.79355
G1 X189.951 Y47.824 E41.8184
G1 X189.599 Y48.204 E41.83563
G1 X167.467 Y70.335 E42.87662
G1 X206.421 Y36.173 E44.59989
G1 X207.009 Y35.711 E44.62476
G1 X207.643 Y35.314 E44.64964
G1 X208.315 Y34.986 E44.67451
G1 X209.019 Y34.733 E44.69939
G1 X209.746 Y34.556 E44.72428
G1 X210.487 Y34.458 E44.74914
G1 X211.235 Y34.439 E44.77403
G1 X211.981 Y34.5 E44.79892
G1 X212.716 Y34.64 E44.82381
G1 X213.431 Y34.859 E44.84868
G1 X214.119 Y35.152 E44.87355
G1 X214.772 Y35.517 E44.89843
G1 X215.383 Y35.949 E44.92332
G1 X215.986 Y36.486 E44.95018
G1 X221.75 Y42.25 E45.2213
G1 X222.032 Y42.468 E45.23315
G1 X222.723 Y43.152 E45.26549
G1 X223.384 Y43.905 E45.29882
G1 X223.846 Y44.493 E45.32369
G1 X224.244 Y45.127 E45.34858
G1 X224.571 Y45.799 E45.37344
G1 X224.825 Y46.503 E45.39833
G1 X225.002 Y47.23 E45.42322
G1 X225.101 Y47.971 E45.44809
G1 X225.12 Y48.719 E45.47297
G1 X225.059 Y49.465 E45.49787
G1 X224.919 Y50.199 E45.52272
G1 X224.702 Y50.915 E45.5476
G1 X224.409 Y51.603 E45.57248
G1 X224.044 Y52.257 E45.59739
G1 X223.612 Y52.867 E45.62225
G1 X223.117 Y53.428 E45.64713
G1 X222.738 Y53.786 E45.66447
G1 X60.342 Y196.204 E52.84861
G1 X60.065 Y196.435 E52.86061
G1 X59.756 Y196.679 E52.8737
G1 X59.21 Y197.069 E52.89602
G1 X58.881 Y197.281 E52.90904
G1 X58.298 Y197.618 E52.93143
G1 X57.949 Y197.798 E52.94449
G1 X57.311 Y198.088 E52.9678
G1 X56.845 Y198.272 E52.98447
G1 X55.859 Y198.579 E53.01881
G1 X55.39 Y198.688 E53.03483
G1 X54.71 Y198.811 E53.05781
G1 X54.319 Y198.862 E53.07093
G1 X53.643 Y198.917 E53.09349
G1 X53.154 Y198.933 E53.10976
G1 X52.133 Y198.892 E53.14374
G1 X51.545 Y198.825 E53.16343
G1 X50.515 Y198.629 E53.1983
G1 X50.044 Y198.502 E53.21453
G1 X49.395 Y198.292 E53.23721
G1 X49.024 Y198.152 E53.2504
G1 X48.399 Y197.881 E53.27306
G1 X47.967 Y197.668 E53.28908
G1 X47.099 Y197.16 E53.32253
G1 X46.69 Y196.879 E53.33904
G1 X46.118 Y196.441 E53.363
G1 X45.743 Y196.122 E53.37937
G1 X45.026 Y195.417 E53.41282
G1 X43.786 Y194.01 E53.47519
G1 X36.721 Y201.075 E53.80751
G1 X36.214 Y201.534 E53.83026
G1 X35.839 Y201.842 E53.8464
G1 X35.004 Y202.432 E53.8804
G1 X34.58 Y202.687 E53.89686
G1 X33.961 Y203.018 E53.92021
G1 X33.512 Y203.23 E53.93672
G1 X32.541 Y203.603 E53.97132
G1 X32.076 Y203.743 E53.98747
G1 X31.427 Y203.905 E54.00972
G1 X31.041 Y203.982 E54.02281
G1 X30.367 Y204.082 E54.04547
G1 X29.976 Y204.121 E54.05854
G1 X29.281 Y204.156 E54.08168
G1 X28.797 Y204.156 E54.09778
G1 X27.787 Y204.083 E54.13146
G1 X27.197 Y203.997 E54.15129
G1 X26.174 Y203.768 E54.18616
G1 X25.614 Y203.598 E54.20563
G1 X24.645 Y203.224 E54.24017
G1 X24.11 Y202.97 E54.25987
G1 X23.224 Y202.467 E54.29376
G1 X22.733 Y202.139 E54.3134
G1 X21.936 Y201.519 E54.34698
G1 X21.573 Y201.192 E54.36323
G1 X21.307 Y200.939 E54.37544
G1 X19.892 Y199.523 E54.44202
G1 X19.387 Y198.978 E54.46673
G1 X18.957 Y198.453 E54.4893
G1 X18.722 Y198.136 E54.50243
G1 X18.343 Y197.568 E54.52514
G1 X18.142 Y197.233 E54.53813
G1 X17.82 Y196.634 E54.56075
G1 X17.651 Y196.278 E54.57386
G1 X17.374 Y195.607 E54.598
G1 X17.243 Y195.236 E54.61109
G1 X17.055 Y194.611 E54.6328
G1 X16.96 Y194.233 E54.64576
G1 X16.825 Y193.554 E54.66879
G1 X16.767 Y193.163 E54.68193
G1 X16.699 Y192.475 E54.70493
G1 X16.675 Y191.98 E54.72141
G1 X16.702 Y190.943 E54.75591
G1 X16.76 Y190.364 E54.77527
G1 X16.933 Y189.368 E54.80889
G1 X17.052 Y188.891 E54.82524
G1 X17.251 Y188.233 E54.84811
G1 X17.383 Y187.863 E54.86117
G1 X17.653 Y187.211 E54.88464
G1 X17.863 Y186.769 E54.90092
G1 X18.362 Y185.89 E54.93454
G1 X18.636 Y185.479 E54.95097
G1 X19.05 Y184.92 E54.9741
G1 X19.298 Y184.618 E54.9871
G1 X19.758 Y184.11 E55.00989
G1 X172.628 Y31.233 E62.2006
G0 F6000 X172.911 Y31.516
G1 F900 X173.452 Y31.032 E62.22474
G1 X174.043 Y30.609 E62.24891
G1 X174.677 Y30.255 E62.27306
G1 X175.346 Y29.972 E62.29722
G1 X176.042 Y29.764 E62.32138
G1 X176.757 Y29.634 E62.34555
G1 X177.481 Y29.584 E62.36969
G1 X178.207 Y29.613 E62.39386
G1 X178.925 Y29.722 E62.41801
G1 X179.627 Y29.909 E62.44218
G1 X180.304 Y30.172 E62.46633
G1 X180.948 Y30.508 E62.49049
G1 X181.551 Y30.913 E62.51465
G1 X182.245 Y31.516 E62.54523
G1 X189.316 Y38.587 E62.87783
G1 X189.8 Y39.128 E62.90197
G1 X190.223 Y39.719 E62.92614
G1 X190.577 Y40.353 E62.9503
G1 X190.86 Y41.022 E62.97446
G1 X191.068 Y41.718 E62.99862
G1 X191.198 Y42.433 E63.02279
G1 X191.248 Y43.157 E63.04693
G1 X191.219 Y43.883 E63.07109
G1 X191.11 Y44.601 E63.09525
G1 X190.923 Y45.303 E63.11941
G1 X190.66 Y45.98 E63.14357
G1 X190.324 Y46.624 E63.16772
G1 X189.919 Y47.227 E63.19188
G1 X189.316 Y47.921 E63.22246
G1 X158.541 Y78.694 E64.66998
G1 X206.684 Y36.474 E66.79974
G1 X207.256 Y36.026 E66.8239
G1 X207.873 Y35.643 E66.84806
G1 X208.529 Y35.331 E66.87222
G1 X209.215 Y35.092 E66.89638
G1 X209.923 Y34.93 E66.92054
G1 X210.645 Y34.848 E66.9447
G1 X211.371 Y34.845 E66.96885
G1 X212.094 Y34.921 E66.99303
G1 X212.803 Y35.077 E67.01718
G1 X213.491 Y35.31 E67.04134
G1 X214.149 Y35.617 E67.06549
G1 X214.77 Y35.994 E67.08965
G1 X215.346 Y36.437 E67.11382
G1 X215.703 Y36.769 E67.13003
G1 X221.435 Y42.5 E67.39962
G1 X221.99 Y42.969 E67.42379
G1 X222.422 Y43.416 E67.44447
G1 X223.083 Y44.169 E67.47779
